.local/share/icons/Gruvbox-Plus-Dark/panel/22/cisco-tray-connected.svg

<svg xmlns="http://www.w3.org/2000/svg" width="22" height="22" version="1.1">
 <defs>
  <style id="current-color-scheme" type="text/css">
   .ColorScheme-Text { color:#ebdbb2; } .ColorScheme-Highlight { color:#458588; }
  </style>
 </defs>
 <path style="fill:currentColor" class="ColorScheme-Text" d="M 11 3 C 8.009725 3 5.4180719 4.6269634 4.0449219 7.0449219 C 5.2107109 6.3828743 6.558275 6 8 6 C 8.524759 6 9.0371571 6.052885 9.5332031 6.1484375 C 9.5350031 6.1437775 9.5372625 6.1394176 9.5390625 6.1347656 C 9.6481115 5.8511848 9.7727484 5.5773222 9.9121094 5.3105469 C 9.9250094 5.2856729 9.9380319 5.2610491 9.9511719 5.2363281 C 10.078978 4.9978441 10.218628 4.7680924 10.369141 4.5449219 C 10.399021 4.5002339 10.426281 4.454197 10.457031 4.4101562 C 10.609004 4.1942902 10.771315 3.9865308 10.943359 3.7871094 C 10.971399 3.7544164 10.996831 3.719726 11.025391 3.6875 C 11.229896 3.457986 11.444498 3.2379308 11.673828 3.0332031 C 11.45122 3.0147621 11.227527 3 11 3 z M 14.226562 3.6777344 C 13.937176 3.8282219 13.666429 4.0069992 13.408203 4.2011719 C 13.344033 4.2491449 13.284789 4.3030693 13.222656 4.3535156 C 13.008473 4.5286484 12.802873 4.7149958 12.615234 4.9179688 C 12.585374 4.9499898 12.554551 4.9809989 12.525391 5.0136719 C 12.067874 5.5309607 11.695942 6.1253381 11.435547 6.7792969 C 13.363598 7.6944632 14.849453 9.3606937 15.550781 11.398438 C 15.980802 11.151829 16.470568 11 17 11 C 17.750595 11 18.426039 11.292965 18.949219 11.757812 C 18.973234 11.507244 19 11.257287 19 11 C 19 7.7183319 17.041258 4.9142825 14.226562 3.6777344 z M 8 8 C 5.920529 8 4.0933101 9.0464652 3.0175781 10.644531 C 3.0123781 10.76324 3 10.87997 3 11 C 3 15.432 6.568 19 11 19 C 11.119372 19 11.235451 18.987552 11.353516 18.982422 L 11.355469 18.982422 C 12.013286 18.539584 12.564301 17.959751 13 17.296875 L 13 15.904297 C 12.880775 15.834697 12.754351 15.776301 12.638672 15.701172 C 12.606302 15.680172 12.575009 15.658169 12.542969 15.636719 C 12.25712 15.445135 11.982537 15.239592 11.724609 15.013672 C 11.721509 15.010972 11.718044 15.008559 11.714844 15.005859 C 11.453487 14.776245 11.209729 14.527297 10.980469 14.265625 C 10.949319 14.230125 10.919202 14.194255 10.888672 14.158203 C 10.678696 13.909818 10.481461 13.652077 10.302734 13.378906 C 10.289814 13.359196 10.276412 13.340143 10.263672 13.320312 C 10.082505 13.037983 9.9224208 12.740932 9.7773438 12.435547 C 9.7493937 12.376817 9.7238156 12.317331 9.6972656 12.257812 C 9.5660386 11.963138 9.4469465 11.662083 9.3515625 11.349609 C 9.3450625 11.328469 9.3363681 11.308329 9.3300781 11.287109 C 9.2346381 10.964815 9.1659991 10.631172 9.1113281 10.292969 C 9.0985081 10.213799 9.0866619 10.134642 9.0761719 10.054688 C 9.0309241 9.7089918 9 9.358483 9 9 C 9 8.694348 9.0175413 8.3940171 9.0507812 8.0976562 C 8.7092773 8.0377183 8.359197 8 8 8 z M 11.013672 8.8125 C 11.011672 8.87577 11 8.936238 11 9 C 11 9.248781 11.019648 9.4918529 11.048828 9.7324219 C 11.057728 9.8060019 11.070521 9.8784539 11.082031 9.9511719 C 11.109961 10.126892 11.144731 10.300546 11.1875 10.470703 C 11.20522 10.541383 11.221998 10.611992 11.242188 10.681641 C 11.308087 10.90838 11.383569 11.131108 11.474609 11.345703 C 11.571209 11.573403 11.683724 11.79182 11.806641 12.003906 C 11.823061 12.032326 11.840552 12.059771 11.857422 12.087891 C 11.972984 12.279917 12.098646 12.465455 12.234375 12.642578 C 12.247655 12.659958 12.259968 12.678092 12.273438 12.695312 C 12.580001 13.086417 12.93286 13.438044 13.326172 13.742188 C 13.342332 13.754708 13.35871 13.766937 13.375 13.779297 C 13.480246 13.858977 13.59457 13.92688 13.705078 14 L 14 14 C 14 11.777172 12.80056 9.849313 11.013672 8.8125 z M 17 12 C 15.892 12 15 12.9109 15 14.03125 L 15 15 L 14 15 L 14 19 L 20 19 L 20 15 L 19 15 L 19 14.03125 C 19 12.91135 18.108 12 17 12 z M 17 13 C 17.554 13 18 13.4424 18 14 L 18 15 L 16 15 L 16 14 C 16 13.4424 16.446 13 17 13 z"/>
</svg>

<svg width="22" height="22" version="1.1" xmlns="http://www.w3.org/2000/svg">
  <defs>
    <style id="current-color-scheme" type="text/css">.ColorScheme-Text { color:#ebdbb2; } .ColorScheme-Highlight { color:#458588; } .ColorScheme-NeutralText { color:#fe8019; } .ColorScheme-PositiveText { color:#689d6a; } .ColorScheme-NegativeText { color:#fb4934; }</style>
  </defs>
  <path class="ColorScheme-Text" d="m11 3c-2.99 0-5.582 1.627-6.955 4.045 1.166-0.662 2.513-1.045 3.955-1.045 0.9772 0 1.532 0.1424 1.539 0.1348 0.52-1.353 1.371-2.42 2.135-3.102-0.2226-0.01844-0.4463-0.0332-0.6738-0.0332zm3.227 0.6777c-0.5409 0.2813-2.034 1.201-2.791 3.102 1.924 0.9131 3.418 2.568 4.121 4.6 0.4415-0.2459 0.938-0.3762 1.443-0.3789 0.7211 3.15e-4 1.418 0.2603 1.963 0.7324 0.02221-0.2412 0.03711-0.485 0.03711-0.7324 0-3.282-1.959-6.086-4.773-7.322zm-6.227 4.322c-2.079 0-3.907 1.046-4.982 2.645-0.0052 0.1187-0.01758 0.2354-0.01758 0.3555 0 4.432 3.568 8 8 8 0.1194 0 0.2354-0.01245 0.3535-0.01758h2e-3c0.6525-0.4393 1.21-1.006 1.644-1.662v-1.4c-2.334-1.364-4.356-4.194-3.949-7.822-0.7268-0.1276-1.142-0.08849-1.051-0.09766zm3.014 0.8125c-0.05523 1.747 0.6832 3.877 2.676 5.188h0.2969c-0.0026-0.9456-0.2578-3.612-2.973-5.188zm5.986 3.188c-1.108 0-2 0.9112-2 2.031v0.9688h-1v4h6v-4h-1v-0.9688c0-1.12-0.892-2.031-2-2.031zm0 1c0.554 0 1 0.4424 1 1v1h-2v-1c0-0.5576 0.446-1 1-1z" fill="currentColor"/>
</svg>
